static/img/humans-icon.svg

<svg width="50" height="50" viewBox="0 0 50 50" fill="none" xmlns="http://www.w3.org/2000/svg">
<g clip-path="url(#clip0_923_2152)">
<circle cx="25" cy="25" r="25" fill="black"/>
<path fill-rule="evenodd" clip-rule="evenodd" d="M20.3256 7H14V42C16.1052 41.6959 18.2137 41.4017 20.3256 41.1176V29.7763C20.3256 26.0141 22.9181 22.9129 26.6512 22.9129C30.0214 22.9129 32.4583 24.8448 32.4583 29.4204V39.6007C34.5637 39.3574 36.6723 39.1241 38.7839 38.9008V29.3696C38.7839 21.9978 35.5693 17.168 28.3104 17.168C25.4068 17.168 22.607 18.0323 20.3256 20.9301V7Z" fill="white"/>
</g>
<defs>
<clipPath id="clip0_923_2152">
<rect width="50" height="50" fill="white"/>
</clipPath>
</defs>
</svg>

<svg xmlns="http://www.w3.org/2000/svg" width="50" height="50" fill="none"><g clip-path="url(#a)"><circle cx="25" cy="25" r="25" fill="#000"/><path fill="#fff" fill-rule="evenodd" d="M20.326 7H14v35q3.158-.456 6.326-.882V29.776c0-3.762 2.592-6.863 6.325-6.863 3.37 0 5.807 1.932 5.807 6.507V39.6q3.158-.364 6.326-.7v-9.53c0-7.372-3.215-12.202-10.474-12.202-2.903 0-5.703.864-7.984 3.762z" clip-rule="evenodd"/></g><defs><clipPath id="a"><path fill="#fff" d="M0 0h50v50H0z"/></clipPath></defs></svg>
